X: 1582
T: The Men From Mallow
M:C|
L:1/8
R:Hornpipe
B:O'Neill's 1582
N:"Collected by F.O'Neill."
Z:Transcribed by Michael D. Long, 9/28/98
K:D
(AG)|F2 (EF) D2 (3(ABc)|d2 (cB) ABcG|E2 (DE) C2 (CF)|EDEF G2 (AG)|\
F2 (EF) D2 (3(ABc)|d2 (cB) ABcG|FDFA GECE|D2 DD D2:|
||(3(ABc)|d2 (cd) AFDF|d2 (cd) A2 (AB)|cBcA GECE|cBcA G2 (3(ABc)|\
d2 (cd) AFDA|d2 (cd) ABcA|FDFA GECE|D2 DD D2 (3(ABc)|
d2 (cd) AFDA|d2 (cd) A2 (AB)|cBcA GECE|cBcA G2 (3(ABc)|\
dcBd cBAc|BAGB A2 D2|FDFA GECE|D2 DD D2|]


